assets/hdfcbank/mono.svg

<svg viewBox="0 0 24 24" xmlns="http://www.w3.org/2000/svg"><path d="m.572 0v10.842h3.712v-6.357h6.381v-4.485zm12.413 0v4.485h6.383v6.357h4.06v-10.842zm-4.64 8.53v6.938h6.963v-6.938zm-7.773 4.623v10.847h10.093v-4.486h-6.38v-6.361zm18.796 0v6.361h-6.383v4.486h10.443v-10.847z"/></svg>

<svg xmlns="http://www.w3.org/2000/svg" viewBox="0 0 24 24"><path d="M.572 0v10.842h3.712V4.485h6.381V0zm12.413 0v4.485h6.383v6.357h4.06V0zm-4.64 8.53v6.938h6.963V8.53zM.572 13.153V24h10.093v-4.486h-6.38v-6.361zm18.796 0v6.361h-6.383V24h10.443V13.153z"/></svg>
